svgs/icons/sm/hotels.svg

<svg xmlns="http://www.w3.org/2000/svg" viewBox="0 0 16 16"><path fill="#34363D" d="M4.5 8c-.8 0-1.5-.7-1.5-1.5s.7-1.5 1.5-1.5 1.5.7 1.5 1.5-.7 1.5-1.5 1.5m8.5-3h-4c-1.1 0-2 1-2 2.1v.9h8v-.9c0-1.1-.9-2.1-2-2.1m3 8v-3c0-.6-.4-1-1-1h-13v-6c0-.5-.4-1-1-1-.5 0-1 .4-1 1v10c0 .6.4 1 1 1s1-.4 1-1v-2h12v2c0 .6.4 1 1 1s1-.4 1-1z"/></svg>

<svg xmlns="http://www.w3.org/2000/svg" viewBox="0 0 16 16"><path fill="#34363D" d="M4.5 8C3.7 8 3 7.3 3 6.5S3.7 5 4.5 5 6 5.7 6 6.5 5.3 8 4.5 8M13 5H9C7.9 5 7 6 7 7.1V8h8v-.9C15 6 14.1 5 13 5m3 8v-3c0-.6-.4-1-1-1H2V3c0-.5-.4-1-1-1-.5 0-1 .4-1 1v10c0 .6.4 1 1 1s1-.4 1-1v-2h12v2c0 .6.4 1 1 1s1-.4 1-1z"/></svg>
